X:1
T:Title
%%score 1 { 2 | 3 }
L:1/8
Q:1/4=92
M:3/4
K:G
V:1 treble nm="Grand Piano, Soprano"
V:2 bass nm="Choir Pad, Glamorganshire, 87.87 D"
V:3 bass 
V:1
 [DB]>[CA] [B,G]3 [B,D] | [CE]>[B,D] [B,D] [B,G]3 | [DG]>[DG] [DA]3 [DB] | [Dc]>[DB] [DA]4 | %4
w: By~John~Robson~Sweney,~1882 * * *||||
 [DB]>[Dc] [Dd]3 [DB] | [DG]D [CE] [CG]3 | [CA]>[DB] [Ec]3 [CE] | [CF]>[CD] [B,G]4 | %8
w: ||||
 G>[=FG] [Ec]3 [Ec] | [EG]>[^DA] [=DB] [DB]3 | [DB]>[DB] [^CB]3 [CA] | [^CG]>[CE] [=CA]4 | %12
w: ||||
 [DB]>[Dc] [Dd]3 [DB] | [DG]D [CE] [CG]3 | [CA]>[DB] [Ec]3 [CE] | [CF]>[CD] [B,G]4- | [B,G]4 z2 |] %17
w: |||||
V:2
 G,>D, D,3 G, | G,>G, G, D,3 | G,>G, F,3 G, | A,>G, F,4 | G,>A, B,3 G, | G,G, G, E,3 | %6
 E,>^G, A,3 A, | A,>F, G,4 | G,>G, G,3 G, | C>G, G, G,3 | G,>G, G,3 E, | A,>G, F,4 | G,>A, B,3 G, | %13
 G,G, G, E,3 | E,>^G, A,3 A, | A,>F, G,4- | G,4 z2 |] %17
V:3
 G,,>G,, G,,3 G,, | G,,>G,, G,, G,,3 | B,,>B,, D,4 | F,2 D,3 C, | B,,>A,, G,,3 G,, | %5
 B,,B,, C, C,3 | C,>B,, A,,3 C, | D,>D, G,,4 | z z/ B,,/ C,3 C, | C,>C, G,, G,,3 | %10
 G,,>G,, A,,3 A,, | E,>E, D,3 C, | B,,>A,, G,,3 G,, | B,,B,, C, C,3 | C,>B,, A,,3 C, | %15
 D,>D, G,,4- | G,,4 z2 |] %17

